X:129
T: Hawk Polka, The
R: polka 48
M: 4/4
L: 1/8
K:Dmaj
M: 2/4
F/G/ |AA FA | dA f/e/d/c/ | BB GB | e/f/g/f/ e/d/c/B/ |
A (3A/B/A/ FA | dA/d/ fd | cB/c/ gc | ed dF/G/ |
A2 F>A | dA/d/ f/e/d/c/ | B2 G>B | eg/f/ e/d/c/B/ |
A/B/A/G/ F/D/F/A/ | d>e f/e/d/c/ | Bg/e/ cB/c/ | ed d ||
g |fg/a/ b/a/^g/b/ | aA df | ef/g/ g/c/e/c/ | d/c/d/e/ fA |
f2 g/a/b | aA/d/ fa | e>f gA/c/ | ed d>g |
f/g/a/b/ bg/b/ | aA d/e/f | e/f/g gc | d/e/f fA |
fg/b/ b/f/g/b/ | ac df | e2 g>c | ed d ||
A |A/a/f/d/ A/F/D/F/ | A/a/f/d/ AF/G/ | AA/G/ EG | BA/G/ FG |
Af/d/ AD/F/ | Af/d/ A/B/c/d/ | B>d c/d/e/f/ | ed dF/G/ |
(3A/A/A/ f/d/ Ad/f/ | (3a/a/a/ f/d/ A2 | A/A/E EG | B/B/F FG |
A/a/f/d/ A/F/D/F/ | A/d/f/d/ A2 | B/c/d c/d/e/f/ | ed d |]

